X:1
T:Keep Telling It
T:Keep Telling It
T:William Edie Marks
T:William Edie Marks, 1921
T:Public Domain Courtesy of the Cyber Hymnal™
T:Public Domain Courtesy of the Cyber Hymnal™
C:William Edie Marks
Z:Public Domain
Z:Courtesy of the Cyber Hymnal™
%%score ( 1 2 ) 3
L:1/8
Q:1/4=130
M:6/4
K:G
V:1 treble 
V:2 treble 
V:3 bass 
V:1
 D2 | [DG]3 [DA] [GB]2 [FA]3 [GB] [Ac]2 | [GB]3 [Gc] [Gd]2 [Ec]4 [Ge]2 | %3
w: 1.~If|there is a- bun- dance of|joy in your heart, Made|
w: 2.~If|you would win o- thers for|Je- sus to- day, Bright|
w: 3.~Keep|tell- ing of Je- sus, His|cross and His grave, Keep|
 [Gd]3 [Gd] [Gd]2 [Ad]2 [Ac]2 [GB]2 | ([GB]6 [FA]4) D2 | [DG]3 [DA] [GB]2 [FA]3 [GB] [Ac]2 | %6
w: bright by the light from a-|bove, * If|Je- sus has bid- den your|
w: stars for your crown up a-|bove, * Keep|joy- ful- ly tell- ing to|
w: tell- ing of Heav- en a-|bove; * Keep|tell- ing— Christ ris- en and|
 [GB]3 [Gc] [Gd]2 [Ec]4 [Ge]2 | [Gd]3 [GB] [Gc]2 [GB]2 [FB]2 [FA]2 | G6- G4 ||"^Refrain" [DG]2 | %10
w: sor- rows de- part, Keep|tell- ing the sto- ry of|love. *|Keep|
w: all on the way, The|beau- ti- ful sto- ry of|love. *||
w: a- ble to save, The|pow- er- ful sto- ry of|love. *||
 [DF]2 [FA]8 [FA]2 | G2 [GB]8 [GB]2 | [FA]3 [GB] [Ac]2 [Fc]2 [Fd]2 [Fe]2 | ([G-d]6 [GB]4) D2 | %14
w: tell- ing, keep|tell- ing, Of|Je- sus and Heav- en a-|bove; * Keep|
w: ||||
w: ||||
 [DG]3 [DA] [GB]2 [FA]3 [GB] [Ac]2 | [GB]3 [Gc] [Gd]2 [Ec]4 [Ge]2 | %16
w: tell- ing to o- thers you|meet on the way, The|
w: ||
w: ||
 [Gd]3 [GB] [Gc]2 [GB]2 [FB]2 [FA]2 | G6- G4 |] %18
w: won- der- ful sto- ry of|love. *|
w: ||
w: ||
V:2
 D2 | x12 | x12 | x12 | x10 D2 | x12 | x12 | x12 | G6- G4 || x2 | x12 | G2 x10 | x12 | x10 D2 | %14
 x12 | x12 | x12 | G6- G4 |] %18
V:3
 [G,B,]2 | [G,B,]3 [G,C] [G,D]2 [D,D]3 [D,D] [D,D]2 | [G,D]3 [G,C] [G,B,]2 [B,,C]4 [C,C]2 | %3
w: ~|~ ~ ~ ~ ~ ~|~ ~ ~ ~ ~|
 [G,B,]3 [G,B,] [G,B,]2 [F,D]2 [F,D]2 [G,D]2 | [D,D]6- [D,D]4 [F,C]2 | %5
w: ~ ~ ~ ~ ~ ~|~ * ~|
 [G,B,]3 [G,C] [G,D]2 [D,D]3 [D,D] [D,D]2 | [G,D]3 [G,C] [G,B,]2 [C,C]4 [C,C]2 | %7
w: ~ ~ ~ ~ ~ ~|~ ~ ~ ~ ~|
 [D,B,]3 [D,D] [D,E]2 [D,D]2 [D,D]2 [D,C]2 | [G,,B,]6- [G,,B,]4 || [G,,B,]2 | %10
w: ~ ~ ~ ~ ~ ~|~ *|Keep|
 [D,A,]3 [D,D] [D,D]2 [D,D]2 [D,D]2 [D,D]2 | [G,B,]2 [G,D]2 [G,D]2 [G,D]4 [G,D]2 | %12
w: tell- ing it o- ver and|o- ver to- day *|
 [D,D]3 [D,D] [D,D]2 [D,D]2 [D,D]2 [D,C]2 | ([G,-B,]6 [G,D]4) [G,B,]2 | %14
w: ||
 [G,B,]3 [G,C] [G,D]2 [D,D]3 [D,D] [D,D]2 | [G,D]3 [G,C] [G,B,]2 [C,C]4 [C,C]2 | %16
w: ||
 [D,B,]3 [D,D] [D,E]2 [D,D]2 [D,D]2 [D,C]2 | [G,,B,]6- [G,,B,]4 |] %18
w: ||

